X: 324
T:Blacksmith Reel
T:Connie O'Connell's
S:Kevin Burke Tutor VCR
Z:Alf.warnock@rogers.com
L:1/8
M:4/4
R:reel
K:D
d2 fd Adfd|d2 fa gece|d2 fd Adfd|[1 eA (3Bcd egfe:|[2 eA (3Bcd ef (3gfe|
|:a3 b afdf|a2 fd ef (3gfe|a3 b afdf|eA (3Bcd ef (3gfe|
a3 b afdf|a2 fd ef (3gfe|afge fdec|ABcd egfe:|
